dist/uploads/GPAY.svg

<svg width="42" height="26" viewBox="0 0 42 26" fill="none" xmlns="http://www.w3.org/2000/svg">
<path d="M38.0609 0.517212H2.97323C1.61674 0.517212 0.51709 1.51551 0.51709 2.74696V23.1333C0.51709 24.3647 1.61674 25.363 2.97323 25.363H38.0609C39.4174 25.363 40.5171 24.3647 40.5171 23.1333V2.74696C40.5171 1.51551 39.4174 0.517212 38.0609 0.517212Z" fill="white" stroke="white" stroke-width="1.03448"/>
<path fill-rule="evenodd" clip-rule="evenodd" d="M19.4254 16.6363V13.5575L21.1084 13.5569C21.8023 13.5573 22.3854 13.3416 22.8578 12.9096C23.3353 12.4997 23.6022 11.9103 23.5886 11.296C23.5981 10.685 23.3316 10.1 22.8578 9.6913C22.3896 9.25703 21.7598 9.02007 21.1084 9.0331H18.4067V16.6363H19.4254ZM19.4254 12.6233V9.96921L21.1337 9.96859C21.5145 9.95829 21.8815 10.1052 22.1416 10.372C22.4034 10.616 22.551 10.9511 22.551 11.3011C22.551 11.6511 22.4034 11.9862 22.1416 12.2302C21.8783 12.4913 21.5124 12.6341 21.1337 12.6233H19.4254Z" fill="black"/>
<path fill-rule="evenodd" clip-rule="evenodd" d="M27.7192 11.8432C27.2834 11.4573 26.6892 11.2644 25.9362 11.2644C24.969 11.2644 24.2386 11.6041 23.7451 12.2836L24.6423 12.8253C24.9739 12.3651 25.4241 12.1349 25.9932 12.1349C26.3559 12.1309 26.707 12.258 26.9764 12.491C27.245 12.704 27.3994 13.0214 27.3972 13.3556V13.5788C27.0057 13.3665 26.5076 13.2603 25.9027 13.2603C25.1941 13.2611 24.6276 13.4205 24.2032 13.7384C23.7789 14.0562 23.5667 14.4843 23.5667 15.0226C23.5574 15.5128 23.7792 15.9808 24.1703 16.2966C24.5727 16.6363 25.0728 16.8062 25.6705 16.8062C26.3707 16.8062 26.9316 16.5089 27.3535 15.9144H27.3978V16.6363H28.3721V13.4301C28.3725 12.758 28.1549 12.229 27.7192 11.8432ZM24.9561 15.6809C24.7428 15.5334 24.6169 15.2961 24.6183 15.0438C24.6183 14.7605 24.7568 14.5246 25.0359 14.3304C25.3121 14.1391 25.6572 14.0435 26.071 14.0435C26.6392 14.0435 27.0821 14.1648 27.3996 14.4075C27.3996 14.8176 27.231 15.1749 26.8935 15.4795C26.5896 15.7709 26.1775 15.935 25.7476 15.9356C25.4611 15.9408 25.1814 15.8508 24.9561 15.6809Z" fill="black"/>
<path fill-rule="evenodd" clip-rule="evenodd" d="M33.9655 11.4341L30.564 18.9294H29.5124L30.7747 16.3068L28.5381 11.4341H29.6453L31.2619 15.1711H31.284L32.8563 11.4341H33.9655Z" fill="black"/>
<path fill-rule="evenodd" clip-rule="evenodd" d="M15.3091 12.8939C15.3095 12.5962 15.2833 12.299 15.2307 12.0056H10.9346V13.6882H13.3952C13.2935 14.2312 12.9648 14.7108 12.4853 15.0158V16.108H13.9539C14.8137 15.3477 15.3091 14.2234 15.3091 12.8939Z" fill="#4285F4"/>
<path fill-rule="evenodd" clip-rule="evenodd" d="M10.9345 17.1629C12.1639 17.1629 13.199 16.7757 13.9538 16.1083L12.4852 15.0161C12.0766 15.2819 11.5501 15.4335 10.9345 15.4335C9.74628 15.4335 8.73773 14.6654 8.37711 13.6302H6.86426V14.7558C7.63752 16.2315 9.21242 17.1628 10.9345 17.1629Z" fill="#34A853"/>
<path fill-rule="evenodd" clip-rule="evenodd" d="M8.37732 13.6309C8.18663 13.0885 8.18663 12.5011 8.37732 11.9586V10.8331H6.86447C6.2177 12.0673 6.2177 13.5223 6.86447 14.7565L8.37732 13.6309Z" fill="#FBBC04"/>
<path fill-rule="evenodd" clip-rule="evenodd" d="M10.9345 10.1557C11.5841 10.1454 12.2119 10.3809 12.6821 10.811L13.9823 9.56404C13.1578 8.82141 12.0655 8.41368 10.9345 8.42631C9.21242 8.42638 7.63752 9.35775 6.86426 10.8334L8.37711 11.9589C8.73773 10.9238 9.74628 10.1557 10.9345 10.1557Z" fill="#EA4335"/>
</svg>

<svg width="42" height="26" fill="none" xmlns="http://www.w3.org/2000/svg"><path d="M38.06.517H2.974c-1.356 0-2.456.999-2.456 2.23v20.386c0 1.232 1.1 2.23 2.456 2.23h35.088c1.356 0 2.456-.998 2.456-2.23V2.747c0-1.231-1.1-2.23-2.456-2.23z" fill="#fff" stroke="#fff" stroke-width="1.034"/><path fill-rule="evenodd" clip-rule="evenodd" d="M19.425 16.636v-3.079h1.683c.694 0 1.277-.215 1.75-.647.477-.41.744-1 .73-1.614a2.077 2.077 0 00-.73-1.605 2.5 2.5 0 00-1.75-.658h-2.701v7.603h1.018zm0-4.013V9.97h1.709c.38-.01.747.136 1.008.403.261.244.409.58.409.93 0 .35-.148.684-.41.928a1.375 1.375 0 01-1.007.393h-1.709zm8.295-.78c-.437-.386-1.03-.579-1.784-.579-.967 0-1.697.34-2.19 1.02l.896.541a1.58 1.58 0 011.351-.69 1.48 1.48 0 01.983.356c.269.213.423.53.421.865v.223c-.391-.213-.89-.319-1.494-.319-.709.001-1.275.16-1.7.478-.424.318-.636.746-.636 1.285a1.6 1.6 0 00.603 1.274c.403.34.903.51 1.5.51.7 0 1.262-.298 1.683-.893h.045v.722h.974V13.43c0-.672-.217-1.201-.653-1.587zm-2.764 3.838a.77.77 0 01-.338-.637c0-.284.139-.52.418-.714.276-.19.621-.287 1.035-.287.568 0 1.011.122 1.329.365 0 .41-.169.767-.506 1.072a1.66 1.66 0 01-1.146.456 1.278 1.278 0 01-.792-.255zm9.009-4.247l-3.401 7.495h-1.052l1.263-2.622-2.237-4.873h1.107l1.617 3.737h.022l1.572-3.737h1.11z" fill="#000"/><path fill-rule="evenodd" clip-rule="evenodd" d="M15.31 12.894c0-.298-.027-.595-.08-.888h-4.295v1.682h2.46a2.019 2.019 0 01-.91 1.328v1.092h1.469c.86-.76 1.355-1.885 1.355-3.214z" fill="#4285F4"/><path fill-rule="evenodd" clip-rule="evenodd" d="M10.934 17.163c1.23 0 2.265-.387 3.02-1.055l-1.469-1.092c-.408.266-.935.418-1.55.418a2.715 2.715 0 01-2.558-1.804H6.864v1.126c.774 1.476 2.348 2.407 4.07 2.407z" fill="#34A853"/><path fill-rule="evenodd" clip-rule="evenodd" d="M8.377 13.63a2.516 2.516 0 010-1.671v-1.126H6.864a4.21 4.21 0 000 3.924l1.513-1.126z" fill="#FBBC04"/><path fill-rule="evenodd" clip-rule="evenodd" d="M10.934 10.156c.65-.01 1.278.225 1.748.655l1.3-1.247a4.483 4.483 0 00-3.047-1.138c-1.723 0-3.297.932-4.07 2.407l1.512 1.126a2.715 2.715 0 012.557-1.803z" fill="#EA4335"/></svg>
